packages/kaspersky-hexa-ui-icons/src/iconsSVGs/24/Api.svg

<svg width="24" height="24" viewBox="0 0 24 24" fill="none" xmlns="http://www.w3.org/2000/svg">
<path fill-rule="evenodd" clip-rule="evenodd" d="M12 2C13.7865 2 15.4361 2.84028 16.4756 4.3623C18.3819 4.74457 20 6.41597 20 8.625C20 10.5069 18.7904 12.0771 17.1191 12.7051L18.707 14.293C18.8946 14.4805 19 14.7348 19 15V17.0498C20.1411 17.2814 21 18.2905 21 19.5C21 20.8807 19.8807 22 18.5 22C17.1193 22 16 20.8807 16 19.5C16 18.6828 16.3936 17.9591 17 17.5029V15.4141L14.5859 13H13V14.209C13.8828 14.5948 14.5 15.475 14.5 16.5C14.5 17.8807 13.3807 19 12 19C10.6193 19 9.5 17.8807 9.5 16.5C9.5 15.475 10.1172 14.5948 11 14.209V13H9.41406L7 15.4141V17.5029C7.60637 17.9591 8 18.6828 8 19.5C8 20.8807 6.88071 22 5.5 22C4.11929 22 3 20.8807 3 19.5C3 18.2905 3.85886 17.2814 5 17.0498V15C5 14.7348 5.10543 14.4805 5.29297 14.293L6.75684 12.8281C5.25785 12.3766 4 11.0687 4 9.375C4 8.2994 4.34679 7.32979 5.01562 6.60449C5.53015 6.04662 6.19839 5.6741 6.95117 5.49707C7.7763 3.28605 9.82544 2 12 2ZM5.5 19C5.22386 19 5 19.2239 5 19.5C5 19.7761 5.22386 20 5.5 20C5.77614 20 6 19.7761 6 19.5C6 19.2239 5.77614 19 5.5 19ZM18.5 19C18.2239 19 18 19.2239 18 19.5C18 19.7761 18.2239 20 18.5 20C18.7761 20 19 19.7761 19 19.5C19 19.2239 18.7761 19 18.5 19ZM12 16C11.7239 16 11.5 16.2239 11.5 16.5C11.5 16.7761 11.7239 17 12 17C12.2761 17 12.5 16.7761 12.5 16.5C12.5 16.2239 12.2761 16 12 16ZM12 4C10.4917 4 9.10144 4.95894 8.69336 6.62598L8.52051 7.33203L7.79492 7.38574C7.2045 7.42907 6.77177 7.65143 6.48633 7.96094C6.20095 8.27041 6 8.73485 6 9.375C6 10.1634 6.82661 11 7.89355 11H15.5C16.9153 11 18 9.90271 18 8.625C18 7.34947 16.972 6.36883 15.8047 6.28418L15.2676 6.24512L15.0049 5.77539C14.3568 4.6189 13.2389 4 12 4Z" fill="black"/>
</svg>

<svg xmlns="http://www.w3.org/2000/svg" width="24" height="24" fill="none" viewBox="0 0 24 24"><path fill="#000" fill-rule="evenodd" d="M12 2c1.7865 0 3.4361.8403 4.4756 2.3623C18.3819 4.7446 20 6.416 20 8.625c0 1.8819-1.2096 3.4521-2.8809 4.0801l1.5879 1.5879A1 1 0 0 1 19 15v2.0498c1.1411.2316 2 1.2407 2 2.4502 0 1.3807-1.1193 2.5-2.5 2.5S16 20.8807 16 19.5c0-.8172.3936-1.5409 1-1.9971v-2.0888L14.5859 13H13v1.209c.8828.3858 1.5 1.266 1.5 2.291 0 1.3807-1.1193 2.5-2.5 2.5s-2.5-1.1193-2.5-2.5c0-1.025.6172-1.9052 1.5-2.291V13H9.414L7 15.4141v2.0888c.6064.4562 1 1.1799 1 1.9971C8 20.8807 6.8807 22 5.5 22S3 20.8807 3 19.5c0-1.2095.8589-2.2186 2-2.4502V15a1 1 0 0 1 .293-.707l1.4638-1.4649C5.2578 12.3766 4 11.0687 4 9.375c0-1.0756.3468-2.0452 1.0156-2.7705.5145-.5579 1.1828-.9304 1.9356-1.1074C7.7763 3.286 9.8254 2 12 2M5.5 19a.5.5 0 1 0 0 1 .5.5 0 0 0 0-1m13 0a.5.5 0 1 0 .0001 1.0001A.5.5 0 0 0 18.5 19M12 16a.5.5 0 1 0 .0001 1.0001A.5.5 0 0 0 12 16m0-12c-1.5083 0-2.8986.959-3.3066 2.626l-.1729.706-.7256.0537c-.5904.0434-1.0231.2657-1.3086.5752C6.201 8.2704 6 8.735 6 9.375 6 10.1634 6.8266 11 7.8936 11H15.5c1.4153 0 2.5-1.0973 2.5-2.375 0-1.2755-1.028-2.2562-2.1953-2.3408l-.5371-.039-.2627-.4698C14.3568 4.6189 13.2389 4 12 4"/></svg>
